Catalina-light/actions/22/edit-cut.svg

<svg xmlns="http://www.w3.org/2000/svg" viewBox="0 0 22 22">
  <defs id="defs3051">
    <style type="text/css" id="current-color-scheme">
      .ColorScheme-Text {
        color:#4d4d4d
      }
      </style>
  </defs>
    <path
       style="fill:currentColor;fill-opacity:1;stroke:none"
       class="ColorScheme-Text"
       d="M 7.0136719 2 L 6.578125 2.7753906 C 6.3082019 3.2566573 6.0742556 3.4841797 5.9492188 3.9121094 C 5.8867003 4.1260741 5.8879604 4.382032 5.9511719 4.6132812 C 6.014389 4.8445306 6.1238004 5.0660793 6.2773438 5.3398438 L 9.671875 11.402344 L 7.9570312 14.425781 C 7.5086696 14.14832 7.0658575 13.833984 6.5019531 13.833984 C 4.8436666 13.833984 3.5 15.222959 3.5 16.917969 C 3.5 18.612977 4.8436663 20 6.5019531 20 C 8.1602401 20 9.5039063 18.612977 9.5039062 16.917969 C 9.5039062 16.784014 9.4829238 16.658606 9.4667969 16.53125 C 9.9290453 15.527681 10.365338 14.742623 11.275391 14.283203 C 11.278428 14.279828 11.278325 14.278766 11.28125 14.275391 L 12.535156 16.513672 C 12.517933 16.647706 12.496094 16.779473 12.496094 16.917969 C 12.496094 18.612977 13.839759 20 15.498047 20 C 17.156334 20 18.5 18.612977 18.5 16.917969 C 18.5 15.222959 17.156333 13.833984 15.498047 13.833984 C 14.936287 13.833984 14.493635 14.142527 14.046875 14.417969 L 12.337891 11.402344 L 15.736328 5.3398438 L 15.736328 5.3378906 C 15.889262 5.0650713 15.997487 4.8439509 16.060547 4.6132812 C 16.123761 4.382032 16.126879 4.1260741 16.064453 3.9121094 C 15.939315 3.4842212 15.705469 3.2566573 15.435547 2.7753906 L 15 2 L 11.005859 9.0488281 L 7.0136719 2 z M 6.5019531 15.884766 C 7.0583609 15.884766 7.4980469 16.333167 7.4980469 16.917969 C 7.4980469 17.502771 7.0583609 17.949219 6.5019531 17.949219 C 5.9455453 17.949219 5.5078125 17.502771 5.5078125 16.917969 C 5.5078125 16.333166 5.9455453 15.884766 6.5019531 15.884766 z M 15.498047 15.884766 C 16.054454 15.884766 16.492187 16.333167 16.492188 16.917969 C 16.492188 17.502771 16.054454 17.949219 15.498047 17.949219 C 14.941638 17.949219 14.501953 17.502771 14.501953 16.917969 C 14.501953 16.333166 14.941638 15.884766 15.498047 15.884766 z "
        />
</svg>

<svg viewBox="0 0 22 22" xmlns="http://www.w3.org/2000/svg">
<defs>
<style id="current-color-scheme" type="text/css">.ColorScheme-Text {
        color:#4d4d4d
      }</style>
</defs>
<path class="ColorScheme-Text" d="m7.0137 2-0.43555 0.77539c-0.26992 0.48127-0.50387 0.70879-0.62891 1.1367-0.062518 0.21396-0.061258 0.46992 0.0019531 0.70117 0.063217 0.23125 0.17263 0.4528 0.32617 0.72656l3.3945 6.0625-1.7148 3.0234c-0.44836-0.27746-0.89117-0.5918-1.4551-0.5918-1.6583 0-3.002 1.389-3.002 3.084s1.3437 3.082 3.002 3.082 3.002-1.387 3.002-3.082c0-0.13396-0.020982-0.25936-0.037109-0.38672 0.46225-1.0036 0.89854-1.7886 1.8086-2.248 0.003037-0.003375 0.002934-0.004437 0.005859-0.007812l1.2539 2.2383c-0.017223 0.13403-0.039062 0.2658-0.039062 0.4043 0 1.695 1.3437 3.082 3.002 3.082s3.002-1.387 3.002-3.082-1.3437-3.084-3.002-3.084c-0.56176 0-1.0044 0.30854-1.4512 0.58398l-1.709-3.0156 3.3984-6.0625v-0.0019532c0.15293-0.27282 0.26116-0.49394 0.32422-0.72461 0.063214-0.23125 0.066332-0.48721 0.003906-0.70117-0.12514-0.42789-0.35898-0.65545-0.62891-1.1367l-0.43555-0.77539-3.9941 7.0488-3.9922-7.0488zm-0.51172 13.885c0.55641 0 0.99609 0.4484 0.99609 1.0332s-0.43969 1.0312-0.99609 1.0312-0.99414-0.44645-0.99414-1.0312c0-0.5848 0.43773-1.0332 0.99414-1.0332zm8.9961 0c0.55641 0 0.99414 0.4484 0.99414 1.0332s-0.43773 1.0312-0.99414 1.0312-0.99609-0.44645-0.99609-1.0312c0-0.5848 0.43968-1.0332 0.99609-1.0332z" fill="currentColor"/>
</svg>
